Numix/16/status/pamac-tray-no-update.svg

<?xml version="1.0" encoding="UTF-8" standalone="no"?>
<!-- Created with Inkscape (http://www.inkscape.org/) -->

<svg
   xmlns:dc="http://purl.org/dc/elements/1.1/"
   xmlns:cc="http://creativecommons.org/ns#"
   xmlns:rdf="http://www.w3.org/1999/02/22-rdf-syntax-ns#"
   xmlns:svg="http://www.w3.org/2000/svg"
   xmlns="http://www.w3.org/2000/svg"
   xmlns:sodipodi="http://sodipodi.sourceforge.net/DTD/sodipodi-0.dtd"
   xmlns:inkscape="http://www.inkscape.org/namespaces/inkscape"
   sodipodi:docname="pamac-tray-no-update2.svg"
   height="16"
   id="svg7384"
   inkscape:version="0.91 r13725"
   version="1.1"
   width="16">
  <metadata
     id="metadata90">
    <rdf:RDF>
      <cc:Work
         rdf:about="">
        <dc:format>image/svg+xml</dc:format>
        <dc:type
           rdf:resource="http://purl.org/dc/dcmitype/StillImage" />
        <dc:title>Gnome Symbolic Icon Theme</dc:title>
      </cc:Work>
    </rdf:RDF>
  </metadata>
  <sodipodi:namedview
     inkscape:bbox-nodes="false"
     inkscape:bbox-paths="true"
     bordercolor="#666666"
     borderopacity="1"
     inkscape:current-layer="layer9"
     inkscape:cx="8.0955365"
     inkscape:cy="7.6332321"
     gridtolerance="10"
     inkscape:guide-bbox="true"
     guidetolerance="10"
     id="namedview88"
     inkscape:object-nodes="true"
     inkscape:object-paths="false"
     objecttolerance="10"
     pagecolor="#f9f9f9"
     inkscape:pageopacity="1"
     inkscape:pageshadow="2"
     showborder="false"
     showgrid="false"
     showguides="true"
     inkscape:snap-bbox="true"
     inkscape:snap-bbox-midpoints="false"
     inkscape:snap-global="true"
     inkscape:snap-grids="true"
     inkscape:snap-nodes="true"
     inkscape:snap-others="false"
     inkscape:snap-to-guides="true"
     inkscape:window-height="704"
     inkscape:window-maximized="1"
     inkscape:window-width="1366"
     inkscape:window-x="0"
     inkscape:window-y="27"
     inkscape:zoom="32">
    <inkscape:grid
       empspacing="2"
       enabled="true"
       id="grid4866"
       originx="60px"
       originy="40.000001px"
       snapvisiblegridlinesonly="true"
       spacingx="1px"
       spacingy="1px"
       type="xygrid"
       visible="true" />
    <inkscape:grid
       color="#000000"
       empcolor="#000000"
       empopacity="0"
       empspacing="4"
       enabled="false"
       id="grid5968"
       opacity="0.1254902"
       originx="60px"
       originy="40.000001px"
       snapvisiblegridlinesonly="true"
       spacingx="0.5px"
       spacingy="0.5px"
       type="xygrid"
       visible="true" />
  </sodipodi:namedview>
  <title
     id="title9167">Gnome Symbolic Icon Theme</title>
  <defs
     id="defs7386" />
  <g
     inkscape:groupmode="layer"
     id="layer9"
     inkscape:label="status"
     style="display:inline"
     transform="translate(-181.0002,-257)">
    <path
       style="display:inline;fill:#ececec;fill-opacity:1;fill-rule:evenodd;stroke:none;enable-background:new"
       d="M 8 0 L 5.7324219 3.4335938 L 2.2675781 2.2675781 L 3.4335938 5.7324219 L 0 8 L 3.4335938 10.267578 L 2.2675781 13.732422 L 5.7324219 12.566406 L 8 16 L 10.267578 12.566406 L 13.732422 13.732422 L 12.566406 10.267578 L 16 8 L 12.566406 5.7324219 L 13.732422 2.2675781 L 10.267578 3.4335938 L 8 0 z M 8 4.5 L 11 7.5 L 11.023438 9.0078125 L 9.5 9 L 9 8.5 L 9 11 L 7 11 L 7 8.5 L 6.3007812 9 L 4.9765625 9.0078125 L 5 7.5 L 8 4.5 z "
       transform="translate(181.0002,257)"
       id="rect7040" />
  </g>
  <g
     inkscape:groupmode="layer"
     id="layer10"
     inkscape:label="devices"
     style="display:inline"
     transform="translate(-181.0002,-257)" />
  <g
     inkscape:groupmode="layer"
     id="layer11"
     inkscape:label="apps"
     transform="translate(-181.0002,-257)" />
  <g
     inkscape:groupmode="layer"
     id="layer13"
     inkscape:label="places"
     style="display:inline"
     transform="translate(-181.0002,-257)" />
  <g
     inkscape:groupmode="layer"
     id="layer14"
     inkscape:label="mimetypes"
     transform="translate(-181.0002,-257)" />
  <g
     inkscape:groupmode="layer"
     id="layer15"
     inkscape:label="emblems"
     style="display:inline"
     transform="translate(-181.0002,-257)" />
  <g
     inkscape:groupmode="layer"
     id="g71291"
     inkscape:label="emotes"
     style="display:inline"
     transform="translate(-181.0002,-257)" />
  <g
     inkscape:groupmode="layer"
     id="g4953"
     inkscape:label="categories"
     style="display:inline"
     transform="translate(-181.0002,-257)" />
  <g
     inkscape:groupmode="layer"
     id="layer12"
     inkscape:label="actions"
     style="display:inline"
     transform="translate(-181.0002,-257)" />
</svg>

<!-- Created with Inkscape (http://www.inkscape.org/) -->
<svg xmlns="http://www.w3.org/2000/svg" viewBox="0 0 16 16">
 <g transform="translate(-181.0002,-257)" style="display:inline">
  <path d="m 8 0 l -2.268 3.434 l -3.465 -1.166 l 1.166 3.465 l -3.434 2.268 l 3.434 2.268 l -1.166 3.465 l 3.465 -1.166 l 2.268 3.434 l 2.268 -3.434 l 3.465 1.166 l -1.166 -3.465 l 3.434 -2.268 l -3.434 -2.268 l 1.166 -3.465 l -3.465 1.166 l -2.268 -3.434 z m 0 4.5 l 3 3 l 0.023 1.508 l -1.523 -0.008 l -0.5 -0.5 l 0 2.5 l -2 0 l 0 -2.5 l -0.699 0.5 l -1.324 0.008 l 0.023 -1.508 l 3 -3 z" transform="translate(181.0002,257)" style="fill:#ececec;fill-opacity:1;stroke:none;fill-rule:evenodd"/>
 </g>
</svg>
